X: 21
T: Lady Derby's Minuet
%R: minuet
B: Straight & Skillern "Minuets for the year 1777", p.21
F: http://www.vwml.org/browse/browse-collections-dance-tune-books/browse-straight1777
Z: 2014 John Chambers <jc:trillian.mit.edu>
N: The double appogiatura in bar 2 written as quarter notes for V1 ABC software.
N: See the -V2.abc version for the original.
M: 3/4
L: 1/8
K: C
% - - - - - - - - - - - - - - - - - - - - - - - - - - - - -
% Voice 1 formatted for a US-letter/A4 page size.
V: 1
|:\
[ge][af] [g2e2] [f2d2] | ([f2d2][e2c2]) [a2c2] |\
g2 c2 d'/c'/b/a/ | [g2e2] [f2d2] [e2c2] |\
A4 cA | G4 cG | Gggffe | Te4 d2 :|
|:\
dBGBdf | ecdB c2 | ag f2 e2 | Te4 d2 |\
a2 ^cdef | g2 Bcde | {b}a{g}f e2 Td2 | c6 :|
% - - - - - - - - - - - - - - - - - - - - - - - - - - - - -
% Voice 2 preserves the original staff breaks.
V: 2 clef=bass middle=d
|:\
c'2 z2 g2 | c4 f2 | e4 f2 | g2 G2 c2 |\
fac'a f2 | egc'g e2 | e2 d2 c2 | g4 G2 :|
|:\
b2 g2 b2 | c'2 g2 c2 | fe d2 c2 | g4 G2 |\
f6 | e6 | f2 g2 G2 | c6 :|
% - - - - - - - - - - - - - - - - - - - - - - - - - - - - -

%%sep 1 1 500
%%sep 1 1 500
